X: 36427
T: Seanamhac Tube Station
R: jig
M: 6/8
K: Adorian
|:AGE ~E3|AB/^c/d ~e3|edB ~d3|BGE DEG|
AGE ~E3|AB/^c/d edf|edB edB|1 A2B ceB:|2 ABA AB/^c/d||
~e3 edB|~d3 dBd|edB dBG|AGE Dgf|
ege edB|ded B2d|e2B d2B|ABA AB/^c/d|
efe edB|~d3 age|edB dBG|AGE DEG|
AGE AGE|AGE edB|edB edB|A2B ceB||

